svg/u0030_20e3.svg

<svg viewBox="0 0 128 128" xmlns="http://www.w3.org/2000/svg">
  <g>
    <path d="M116.46,3.96h-104c-4.42,0-8,3.58-8,8v104c0,4.42,3.58,8,8,8h104c4.42,0,8-3.58,8-8v-104 C124.46,7.54,120.88,3.96,116.46,3.96z" fill="#427687"/>
    <path d="M122.16,6.26c-1.54-1.46-3.58-2.28-5.7-2.3h-104c-4.42,0-8,3.58-8,8v104 c0.02,2.12,0.84,4.16,2.3,5.7l16.8-16.8h76c3.26-0.01,5.89-2.64,5.9-5.9v-76L122.16,6.26z" fill="#8CAFBF"/>
    <path d="M40.16,12.86c0-2.3-1.6-3-10.8-2.7c-7.7,0.3-11.5,1.2-13.8,4 s-2.9,8.5-3,15.3c0,4.8,0,9.3,2.5,9.3c3.4,0,3.4-7.9,6.2-12.3C26.66,17.76,40.16,15.86,40.16,12.86z" opacity="0.5" fill="#B4E1ED" enable-background="new "/>
    <path d="M84.36,68.76c0,9.6-1.8,17-5.4,21.8s-9.1,7.3-16.5,7.3s-12.7-2.4-16.3-7.2s-5.5-11.9-5.6-21.2v-11.5 c0-9.6,1.8-16.9,5.4-21.7s9.1-7.3,16.5-7.3s12.8,2.4,16.4,7.1s5.4,11.7,5.5,21.1V68.76z M73.26,56.26c0-6.3-0.8-10.9-2.5-13.9 s-4.4-4.4-8.2-4.4c-3.26-0.17-6.36,1.43-8.1,4.2c-1.7,2.8-2.6,7.1-2.7,13v15.2c0,6.3,0.9,11,2.6,14c1.63,2.98,4.81,4.76,8.2,4.6 c3.26,0.16,6.34-1.49,8-4.3c1.7-2.8,2.6-7.3,2.7-13.3L73.26,56.26z" fill="#FAFAFA"/>
  </g>
</svg>

<svg viewBox="0 0 128 128" xmlns="http://www.w3.org/2000/svg">
  <defs/>
  <path d="M116.46,3.96 L12.46,3.96 C8.04,3.96 4.46,7.54 4.46,11.96 L4.46,115.96 C4.46,120.38 8.04,123.96 12.46,123.96 L116.46,123.96 C120.88,123.96 124.46,120.38 124.46,115.96 L124.46,11.96 C124.46,7.54 120.88,3.96 116.46,3.96 Z" fill="#427687"/>
  <path d="M122.16,6.26 C120.62,4.8 118.58,3.98 116.46,3.96 L12.46,3.96 C8.04,3.96 4.46,7.54 4.46,11.96 L4.46,115.96 C4.48,118.08 5.3,120.12 6.76,121.66 L23.56,104.86 L99.56,104.86 C102.82,104.85 105.45,102.22 105.46,98.96 L105.46,22.96 L122.16,6.26 Z" fill="#8CAFBF"/>
  <path d="M40.16,12.86 C40.16,10.56 38.56,9.86 29.36,10.16 C21.66,10.46 17.86,11.36 15.56,14.16 C13.26,16.96 12.66,22.66 12.56,29.46 C12.56,34.26 12.56,38.76 15.06,38.76 C18.46,38.76 18.46,30.86 21.26,26.46 C26.66,17.76 40.16,15.86 40.16,12.86 Z" fill="#B4E1ED" opacity="0.5"/>
  <path d="M84.36,68.76 C84.36,78.36 82.56,85.76 78.96,90.56 C75.36,95.36 69.86,97.86 62.46,97.86 C55.06,97.86 49.76,95.46 46.16,90.66 C42.56,85.86 40.66,78.76 40.56,69.46 L40.56,57.96 C40.56,48.36 42.36,41.06 45.96,36.26 C49.56,31.46 55.06,28.96 62.46,28.96 C69.86,28.96 75.26,31.36 78.86,36.06 C82.46,40.76 84.26,47.76 84.36,57.16 L84.36,68.76 Z M73.26,56.26 C73.26,49.96 72.46,45.36 70.76,42.36 C69.06,39.36 66.36,37.96 62.56,37.96 C59.3,37.79 56.2,39.39 54.46,42.16 C52.76,44.96 51.86,49.26 51.76,55.16 L51.76,70.36 C51.76,76.66 52.66,81.36 54.36,84.36 C55.99,87.34 59.17,89.12 62.56,88.96 C65.82,89.12 68.9,87.47 70.56,84.66 C72.26,81.86 73.16,77.36 73.26,71.36 L73.26,56.26 Z" fill="#FAFAFA"/>
</svg>
